X: 144
T: No_227_Ball_Game_Song_(j).krn
N: Derived from No_227_Ball_Game_Song_(j).krn
%%abc-version 2.0
%%abcx-abcm2ps-target-version 5.9.1 (29 Sep 2008)
%%abc-creator hum2abc beta
%%abcx-conversion-date 2019/03/15 08:38:45
%%humdrum-veritas 2637956987
%%humdrum-veritas-data 522719155
%%linebreak <none>
%%barnumbers 0
L: 1/8
M: 2/4
K: F clef=bass
[K:clef=bass][M:2/4]C3/D/ CB,/B,/ | 
A,F, F, z | 
B,3/C/ B,A,/F,/ ||  
[M:3/4]A,F, F,C/C/ B,A,/F,/ ||  
[M:2/4]A,F, F, z | 
F,3/A,/ F,B,/B,/ | 
A,F, F, z |]  



